X:1
T:Garrett Barry's
L:1/8
Q:1/4=160
M:6/8
K:D
"D""^Garrett Barry's" DEF GFG |"Am" AGE c2 A |"C" dcA d2 e |"G" fed"C" cAG |
"D" FEF GFG |"Am" AGE cde |"C" dcA"G" GEA |"D" DED D3 ::
"D" dcA d2 e |"Am" fed efe |"C" dcA c2 d |"G" egd ecA |
"D" dcA d2 e |"Am" fed efe |"C" dcA"G" GEA |"D" DED D3 ::
